T: Mrs. Kinney's
M: 3/4
L: 1/8
K: Dmaj
|: {e-} f3 e dc | d4 FG | A2 G3 E | A2 c2 e2 | g2 f2 e2 |
d2 c2 B2 |1 A3 B AG | F2 G2 A2 :|    2 A3 B cA | d4 cB |||: Ad f2 f2 | Ad f2 f2 | Ad f2 f2 | a^g ba fd | Ac e2 e2 |
Ac e2 e2 |1 Ac e2 e2 | a^g ba fd :|2 ab ag fe | d4 FA |||: d4 ed | c4 dc | B2 G2 B2 | A2 F2 D2 |d4 ed | c4 B2 | A2 G2 E2 | D4 FA |d2 d2 FA | c2 c2 FA | B2 G2 B2 | A2 F2 D2 |d4 cB (ed) | c4 B2 | A2 G2 E2 | D6 ||(3ded c2 (3BcB | (3cdc (3cdc (3BcB | (3ABA (3GAG (3EFE | (3DED- D4 ||
